X:3
T:Elisabeth-Polka CF 5- chords
M:2/4
L:1/8
K:Cmaj%%MIDI gchordon
"C".G.G .G.G | GA !>!A2 | "G7"GF F/2E/2D | "C"FE E/2D/2C | GG GG | "G"GB !>!B2 | 
"G7"A/2G/2F F/2E/2D | GD EF :| "C"!>!G2"F"!>!A2 | "G7"FB,/2B,/2 B,B, | !>!A2!>!B2 | "C"GC/2C/2 CC | 
c>c BA | G>G FE | "G7"D/2E/2F F/2E/2D | "C"E/2F/2G G2 | !>!G2"F"!>!A2 | "G7"FB,/2B,/2 B,B, | !>!A2!>!B2 | 
"C"GC/2C/2 CC | c>c BA | AG G/2F/2E | "G7"G/2F/2G/2F/2 ED | "C"CE Cz |: [K:Fmaj] "F"A3G | F3E | 
"Gm"DG GG | G3z | "C7"G3F | E3D | "F"CF FF | F3z | c3A | 
G3F | "Gm"DB BB | B3A | "C7"GC GC | "F"AF d>c | "C7"BE A>G | "F"FA Fz :| 

